X:1
T:Title
%%score [ ( 1 2 ) ( 3 4 ) ]
L:1/8
Q:1/4=120
M:4/4
K:Eb
V:1 treble nm="MusicXML Part"
V:2 treble 
V:3 bass nm="MusicXML Part"
V:4 bass 
V:1
"^St. Michael New (10 10. 66. 10)""^Reginald Heber (1783-1826)\nand John Keble (1792-1866)""^O God the Son eternal" G2 | %1
w: |
w: |
w: |
w: |
w: |
 B3 G E2 D2 | E2 F2 G2 F2 | E6 || F2 | G2 A2 B2"^S. S. Wesley\n(1810-1876)" B2 | c2 d2 ed c2 | %7
w: |||||and the hosts * of|
w: |||||bove yon depths * of|
w: |||||oft their man­ * sion|
w: |||||sunk in death * and|
w: |||||thank- ful chor­ * us|
 B6 || F2 | B2 A2 G2 F2 | E6 E2 | c2 B2 A2 G2 | A6 || D2 | E2 F2 G2 B2 | e2 A2 G2 F2 | E6 |] %17
w: heaven,|And|from the realms of|light, Cast|down in burn- ing||||||
w: sky;|Who,|'mid thy glo- ry's|blaze, Heaven's|cease- less an- thems||||||
w: high,|The|mer- cies of their|King To|mor- tal saints to||||||
w: sin,|Not|with thine hier- arch-|y, The|ar- mies of the||||||
w: raise,|And|tune our songs to|thee, Who|art, and art to||||||
V:2
 B,2 | B,3 B, B,2 B,2 | B,2 E2 E2 D2 | E6 || B,2 | E2 D2 E2 D2 | G2 F2 E2 E2 | D6 || D2 | %9
w: O|God the Son e-|ter- nal, thy dread|might|Sent|forth Saint Mich- ael||||
w: Thine|an- gels, Lord, we|bless with thank- ful|lays,|Dwell-|ing with thee a-||||
w: We|ce- le- brate their|love, whose view- less|wing|Hath|left for us so||||
w: But|thee, the first and|last, we glo- ri-|fy,|Who,|when thy world was||||
w: There-|fore with an- gels|and arch- an- gels|we|To|thy dear love our||||
 E2 F2 E2 D2 | C6 E2 | E2 G2 F2 =E2 | F6 || B,2 | B,2 D2 E2 F2 | E2 E2 E2 D2 | E6 |] %17
w: |||fight|Sa-|tan's re- bel- lious|hosts, to dark- ness|given.|
w: |||raise,|And|gird thy throne in|faith- ful min- is-|try.|
w: |||bring,|Or|guard the couch of|slum- bering in- fan-|cy.|
w: |||sky,|But|didst with thine own|arm the bat- tle|win.|
w: |||be;|And,|end- less as thy|mer- cies, sound thy|praise.|
V:3
 G,2 | G,3 G, G,2 F,2 | E,2 C2 B,2 B,A, | G,6 || B,2 | B,2 B,2 B,2 A,2 | G,2 B,2 B,2 =A,2 | B,6 || %8
 B,2 | B,2 C2 B,2 A,2 | G,6 G,2 | C2 _D2 C2 C2 | C6 || B,2 | B,2 B,2 B,2 B,2 | G,2 C2 B,2 A,2 | %16
 G,6 |] %17
V:4
 E,2 | G,3 E, B,,2 A,,2 | G,,2 A,,2 B,,2 B,,2 | E,6 || D,2 | E,2 F,2 G,2 F,2 | E,2 D,2 C,2 F,2 | %7
 B,,6 || A,,2 | G,,2 A,,2 B,,2 =B,,2 | C,6 _B,,2 | A,,2 B,,2 C,2 C,2 | F,6 || B,2 | %14
 G,2 F,2 E,2 D,2 | C,2 A,,2 B,,2 B,,2 | E,6 |] %17

